public/svg/gcp.svg

<svg width="24" height="24" viewBox="0 0 24 24" fill="none" xmlns="http://www.w3.org/2000/svg">
<g clip-path="url(#clip0)">
<path d="M15.2216 7.12201H15.9536L18.0416 5.03401L18.1436 4.15201C16.9486 3.09812 15.5047 2.3661 13.9483 2.02501C12.3919 1.68393 10.7742 1.74502 9.24796 2.20254C7.72171 2.66006 6.33719 3.4989 5.22505 4.63993C4.11291 5.78095 3.30984 7.18652 2.8916 8.72401C3.1196 8.62801 3.3776 8.61601 3.6236 8.68201L7.7936 7.99201C7.7936 7.99201 8.0036 7.64401 8.1176 7.66201C9.01071 6.67867 10.2465 6.07473 11.5711 5.9743C12.8957 5.87387 14.2084 6.28457 15.2396 7.12201H15.2216Z" fill="#EA4335"/>
<path d="M21.0117 8.72371C20.5326 6.95836 19.5483 5.37138 18.1797 4.15771L15.2517 7.08571C15.8623 7.5841 16.3518 8.21458 16.6834 8.92963C17.0149 9.64468 17.1798 10.4257 17.1657 11.2137V11.7357C17.8563 11.7357 18.5186 12.0101 19.007 12.4984C19.4953 12.9868 19.7697 13.6491 19.7697 14.3397C19.7697 15.0303 19.4953 15.6927 19.007 16.181C18.5186 16.6694 17.8563 16.9437 17.1657 16.9437H11.9517L11.4297 17.4717V20.5977L11.9517 21.1197H17.1657C18.621 21.13 20.041 20.6716 21.2158 19.8125C22.3905 18.9533 23.2576 17.739 23.6889 16.349C24.1201 14.959 24.0927 13.4671 23.6106 12.0939C23.1284 10.7207 22.2172 9.53905 21.0117 8.72371Z" fill="#4285F4"/>
<path d="M6.73151 21.084H11.9455V16.92H6.73151C6.35951 16.92 5.99351 16.842 5.65151 16.686L4.92551 16.914L2.82551 19.002L2.64551 19.734C3.82216 20.6215 5.25773 21.0979 6.73151 21.09V21.084Z" fill="#34A853"/>
<path d="M6.73123 7.55425C5.31986 7.56399 3.9467 8.01396 2.80328 8.8414C1.65985 9.66884 0.803155 10.8325 0.352669 12.1701C-0.097818 13.5077 -0.119637 14.9525 0.290255 16.3031C0.700147 17.6537 1.52131 18.8427 2.63924 19.7043L5.66323 16.6802C5.28001 16.5061 4.94473 16.2416 4.68612 15.9094C4.42751 15.5773 4.25327 15.1874 4.17835 14.7732C4.10342 14.3589 4.13003 13.9327 4.2559 13.531C4.38177 13.1293 4.60314 12.7641 4.90106 12.4667C5.19897 12.1693 5.56455 11.9486 5.96646 11.8234C6.36837 11.6983 6.79463 11.6724 7.20873 11.748C7.62283 11.8237 8.01241 11.9986 8.34411 12.2578C8.6758 12.517 8.93971 12.8527 9.11323 13.2362L12.1312 10.2122C11.4975 9.38234 10.6801 8.71048 9.74327 8.24933C8.80639 7.78818 7.77545 7.55027 6.73123 7.55425Z" fill="#FBBC05"/>
</g>
<defs>
<clipPath id="clip0">
<rect width="24" height="24" fill="white"/>
</clipPath>
</defs>
</svg>

<svg xmlns="http://www.w3.org/2000/svg" width="24" height="24" fill="none" xmlns:v="https://vecta.io/nano"><g clip-path="url(#A)"><path d="M15.222 7.122h.732l2.088-2.088.102-.882a9.38 9.38 0 0 0-8.896-1.949 9.38 9.38 0 0 0-6.356 6.521 1.13 1.13 0 0 1 .732-.042l4.17-.69s.21-.348.324-.33c.893-.983 2.129-1.587 3.454-1.688s2.637.31 3.669 1.148h-.018z" fill="#ea4335"/><path d="M21.012 8.724a9.39 9.39 0 0 0-2.832-4.566l-2.928 2.928a5.21 5.21 0 0 1 1.914 4.128v.522c.691 0 1.353.274 1.841.763s.763 1.151.763 1.841-.274 1.353-.763 1.841-1.151.763-1.841.763h-5.214l-.522.528v3.126l.522.522h5.214a6.78 6.78 0 0 0 6.523-4.771 6.78 6.78 0 0 0-2.677-7.625z" fill="#4285f4"/><path d="M6.732 21.084h5.214V16.92H6.732c-.372 0-.738-.078-1.08-.234l-.726.228-2.1 2.088-.18.732c1.177.887 2.612 1.364 4.086 1.356v-.006z" fill="#34a853"/><path d="M6.731 7.554A6.78 6.78 0 0 0 .353 12.17a6.78 6.78 0 0 0 2.287 7.534l3.024-3.024a2.6 2.6 0 0 1-.977-.771c-.259-.332-.433-.722-.508-1.136s-.048-.84.078-1.242.347-.767.645-1.064.663-.518 1.065-.643.828-.151 1.242-.075.804.251 1.135.51.596.595.769.978l3.018-3.024a6.76 6.76 0 0 0-5.4-2.658z" fill="#fbbc05"/></g><defs><clipPath id="A"><path fill="#fff" d="M0 0h24v24H0z"/></clipPath></defs></svg>
